public/promo-banner/arrow_down.svg

<svg width="60" height="47" viewBox="0 0 60 47" fill="none" xmlns="http://www.w3.org/2000/svg">
<g clip-path="url(#clip0_251_4)">
<path d="M30.1004 39.3714C30.5115 38.8052 30.7506 38.4022 31.0661 38.0759C38.753 30.3514 46.44 22.6268 54.1365 14.9118C55.5898 13.4532 57.3777 13.2901 58.7735 14.4608C60.1981 15.6507 60.3893 17.5314 59.242 18.99C59.0317 19.2587 58.7735 19.4986 58.525 19.7481C49.9393 28.365 41.344 36.9916 32.7583 45.6086C30.9227 47.451 29.173 47.4702 27.3564 45.6566C18.656 36.9245 9.96517 28.1923 1.26475 19.4602C0.289542 18.4814 -0.293672 17.3683 0.15569 15.929C0.566808 14.6239 1.46553 13.8659 2.78494 13.6356C4.02785 13.4245 4.9935 13.9714 5.85398 14.835C13.4549 22.4828 21.0749 30.1211 28.6758 37.7593C29.087 38.1719 29.4407 38.6229 30.1004 39.3618V39.3714Z" fill="white"/>
<path d="M30.0717 16.8885C31.3528 15.5643 32.5384 14.3073 33.7526 13.0886C37.6917 9.12556 41.6308 5.17211 45.5794 1.21866C46.8893 -0.0863621 48.3234 -0.31666 49.7384 0.51817C51.3638 1.48734 51.8323 3.56962 50.7423 5.12413C50.5033 5.46958 50.2069 5.77664 49.9105 6.07411C44.2027 11.8028 38.4948 17.5314 32.787 23.2601C30.8844 25.1697 29.2016 25.1889 27.3181 23.2889C21.5529 17.5123 15.7781 11.7356 10.0512 5.92058C9.46795 5.32564 8.97078 4.49081 8.78912 3.69437C8.46405 2.22621 9.21936 0.921192 10.4336 0.335851C11.7148 -0.287873 13.2063 -0.0479791 14.2484 0.997958C17.7859 4.53879 21.3235 8.08922 24.8514 11.6301C26.5533 13.3477 28.2647 15.0557 30.0717 16.8885Z" fill="white"/>
</g>
<defs>
<clipPath id="clip0_251_4">
<rect width="60" height="47" fill="white"/>
</clipPath>
</defs>
</svg>

<svg xmlns="http://www.w3.org/2000/svg" width="60" height="47" fill="none"><g fill="#fff" clip-path="url(#a)"><path d="M30.1 39.371c.412-.566.65-.969.966-1.295 7.687-7.725 15.374-15.45 23.07-23.164 1.454-1.459 3.242-1.622 4.637-.451 1.425 1.19 1.616 3.07.469 4.529-.21.269-.468.509-.717.758l-25.767 25.86c-1.835 1.843-3.585 1.862-5.402.049-8.7-8.732-17.39-17.465-26.091-26.197-.975-.979-1.559-2.092-1.11-3.531.412-1.305 1.31-2.063 2.63-2.293 1.243-.211 2.208.335 3.069 1.199 7.6 7.648 15.22 15.286 22.822 22.924.411.413.765.864 1.424 1.603v.01Z"/><path d="M30.072 16.889c1.28-1.325 2.466-2.582 3.68-3.8 3.94-3.963 7.879-7.917 11.827-11.87 1.31-1.305 2.744-1.536 4.16-.7 1.625.968 2.093 3.05 1.003 4.605-.239.346-.535.653-.831.95L32.787 23.26c-1.903 1.91-3.585 1.929-5.469.029-5.765-5.777-11.54-11.553-17.267-17.368-.583-.595-1.08-1.43-1.262-2.227-.325-1.468.43-2.773 1.645-3.358 1.28-.624 2.772-.384 3.814.662 3.538 3.54 7.075 7.091 10.603 10.632 1.702 1.718 3.414 3.426 5.22 5.258Z"/></g><defs><clipPath id="a"><path fill="#fff" d="M0 0h60v47H0z"/></clipPath></defs></svg>
